svgs/sharp-light/video.svg

<svg xmlns="http://www.w3.org/2000/svg" viewBox="0 0 576 512"><!--! Font Awesome Pro 6.6.0 by @fontawesome - https://fontawesome.com License - https://fontawesome.com/license (Commercial License) Copyright 2024 Fonticons, Inc. --><path d="M32 96l0 320 320 0 0-320L32 96zM0 64l32 0 320 0 32 0 0 32 0 64 0 192 0 64 0 32-32 0L32 448 0 448l0-32L0 96 0 64zM544 396.2l0-280.4-128 64 0-35.8L544 80l32-16 0 35.8 0 312.4 0 35.8-32-16L416 368l0-35.8 128 64z"/></svg>

<svg xmlns="http://www.w3.org/2000/svg" viewBox="0 0 576 512"><!--! Font Awesome Pro 6.5.2 by @fontawesome - https://fontawesome.com License - https://fontawesome.com/license (Commercial License) Copyright 2024 Fonticons, Inc. --><path d="M32 96V416H352V96H32zM0 64H32 352h32V96v64V352v64 32H352 32 0V416 96 64zM544 396.2V115.8l-128 64V144L544 80l32-16V99.8 412.2 448l-32-16L416 368V332.2l128 64z"/></svg>
